src/pos-icons/ocarina.svg

<svg height="24" viewBox="0 0 24 24" width="24" xmlns="http://www.w3.org/2000/svg"><path d="m20 12c-3.2-1.6-6.6-2.3-9.2-2.7l-1.1-3.4c-.4-1.1-2-1.1-2.4 0l-1 3.1c-2.4.4-4.3 2.5-4.3 5 0 2.8 2.2 5 5 5 0 0 7 0 13-3 0 0 2-1 2-2s-2-2-2-2m-15 2c-.6 0-1-.4-1-1s.4-1 1-1 1 .4 1 1c0 .5-.4 1-1 1m2 3c-.6 0-1-.4-1-1s.4-1 1-1 1 .4 1 1c0 .5-.4 1-1 1m2-3c-.6 0-1-.4-1-1s.4-1 1-1 1 .4 1 1c0 .5-.4 1-1 1m2 3c-.6 0-1-.4-1-1s.4-1 1-1 1 .4 1 1c0 .5-.4 1-1 1m5-3c-.6 0-1-.4-1-1s.4-1 1-1 1 .4 1 1c0 .5-.4 1-1 1m3 1c-.6 0-1-.4-1-1s.4-1 1-1 1 .4 1 1c0 .5-.4 1-1 1z"/></svg>

<?xml version="1.0" encoding="UTF-8"?><!DOCTYPE svg PUBLIC "-//W3C//DTD SVG 1.1//EN" "http://www.w3.org/Graphics/SVG/1.1/DTD/svg11.dtd"><svg xmlns="http://www.w3.org/2000/svg" xmlns:xlink="http://www.w3.org/1999/xlink" version="1.1" id="mdi-ocarina" width="24" height="24" viewBox="0 0 24 24"><path d="M20,12C16.8,10.4 13.4,9.7 10.8,9.3L9.7,5.9C9.3,4.8 7.7,4.8 7.3,5.9L6.3,9C3.9,9.4 2,11.5 2,14C2,16.8 4.2,19 7,19C7,19 14,19 20,16C20,16 22,15 22,14C22,13 20,12 20,12M5,14C4.4,14 4,13.6 4,13C4,12.4 4.4,12 5,12C5.6,12 6,12.4 6,13C6,13.5 5.6,14 5,14M7,17C6.4,17 6,16.6 6,16C6,15.4 6.4,15 7,15C7.6,15 8,15.4 8,16C8,16.5 7.6,17 7,17M9,14C8.4,14 8,13.6 8,13C8,12.4 8.4,12 9,12C9.6,12 10,12.4 10,13C10,13.5 9.6,14 9,14M11,17C10.4,17 10,16.6 10,16C10,15.4 10.4,15 11,15C11.6,15 12,15.4 12,16C12,16.5 11.6,17 11,17M16,14C15.4,14 15,13.6 15,13C15,12.4 15.4,12 16,12C16.6,12 17,12.4 17,13C17,13.5 16.6,14 16,14M19,15C18.4,15 18,14.6 18,14C18,13.4 18.4,13 19,13C19.6,13 20,13.4 20,14C20,14.5 19.6,15 19,15Z" /></svg>
